X:1
T:Heart of Oak
M:4/4
L:1/8
K:Bb
 F2| B2 B3/2 B/2 B2 d3/2 c/2| B2 A3/2 G/2 F3 F| G2 G3/2 A/2 B2 c3/2 d/2|\
 e2 d3/2 c/2 d2 d3/2- c/2| B2 D3/2 E/2 F2 d3/2 c/2| B2 D3/2 E/2 F2 B2|\
 d2 c3/2 B/2 f2 A3/2 B/2| c2 c3/2 c/2 F2 c3/2 c/2| c2 A3/2 B/2 c2 d3/2 d/2|\
 d2 B3/2 c/2 d3 d| B2 Ad B G3| B/2 B3/2 F2 D B,2 F| G3/2- A/2 B3/2 c/2 d2 c3/2 B/2|\
 f2 F3/2 F/2 B2||
